src/assets/icons/months,simple,october-10.svg

<svg width="48" height="48" viewBox="0 0 48 48" fill="none" xmlns="http://www.w3.org/2000/svg">
<rect opacity="0.2" x="5" y="5" width="38" height="38" rx="4" fill="black"/>
<path d="M5 13C5 9.22876 5 7.34315 6.17157 6.17157C7.34315 5 9.22876 5 13 5H35C38.7712 5 40.6569 5 41.8284 6.17157C43 7.34315 43 9.22876 43 13V15H5V13Z" fill="black"/>
<path d="M18.0874 29.1818C18.0874 25.375 15.7237 23.2045 12.6385 23.2045C9.53622 23.2045 7.18963 25.375 7.18963 29.1818C7.18963 32.9716 9.53622 35.1591 12.6385 35.1591C15.7237 35.1591 18.0874 32.9886 18.0874 29.1818ZM15.593 29.1818C15.593 31.6477 14.4226 32.983 12.6385 32.983C10.8487 32.983 9.68395 31.6477 9.68395 29.1818C9.68395 26.7159 10.8487 25.3807 12.6385 25.3807C14.4226 25.3807 15.593 26.7159 15.593 29.1818ZM30.1768 27.4375C29.853 24.75 27.8189 23.2045 25.1257 23.2045C22.0518 23.2045 19.7053 25.375 19.7053 29.1818C19.7053 32.9773 22.0121 35.1591 25.1257 35.1591C28.1087 35.1591 29.9098 33.1761 30.1768 31.0341L27.6882 31.0227C27.4553 32.267 26.478 32.983 25.1655 32.983C23.3984 32.983 22.1996 31.6705 22.1996 29.1818C22.1996 26.7614 23.3814 25.3807 25.1825 25.3807C26.5291 25.3807 27.5007 26.1591 27.6882 27.4375H30.1768ZM31.4979 25.392H35.0604V35H37.4922V25.392H41.0547V23.3636H31.4979V25.392Z" fill="black"/>
</svg>

<svg xmlns="http://www.w3.org/2000/svg" width="48" height="48" fill="none" viewBox="0 0 48 48">
  <rect width="38" height="38" x="5" y="5" fill="#000" opacity=".2" rx="4"/>
  <path fill="#000" d="M5 13c0-3.771 0-5.657 1.172-6.828C7.343 5 9.229 5 13 5h22c3.771 0 5.657 0 6.828 1.172C43 7.343 43 9.229 43 13v2H5v-2zM18.087 29.182c0-3.807-2.363-5.977-5.448-5.977-3.103 0-5.45 2.17-5.45 5.977 0 3.79 2.347 5.977 5.45 5.977 3.085 0 5.448-2.17 5.448-5.977zm-2.494 0c0 2.466-1.17 3.801-2.954 3.801-1.79 0-2.955-1.335-2.955-3.801s1.165-3.801 2.955-3.801c1.784 0 2.954 1.335 2.954 3.8zm14.584-1.744c-.324-2.688-2.358-4.233-5.051-4.233-3.074 0-5.42 2.17-5.42 5.977 0 3.795 2.306 5.977 5.42 5.977 2.983 0 4.784-1.983 5.05-4.125l-2.488-.011c-.233 1.244-1.21 1.96-2.522 1.96-1.768 0-2.966-1.312-2.966-3.801 0-2.42 1.181-3.801 2.983-3.801 1.346 0 2.318.778 2.505 2.056h2.489zm1.32-2.046h3.563V35h2.432v-9.608h3.563v-2.028h-9.557v2.028z"/>
</svg>
